server/public/images/avatar-large.svg

<svg xmlns="http://www.w3.org/2000/svg" xmlns:xlink="http://www.w3.org/1999/xlink" width="50" height="50" viewBox="0 0 50 50">
  <defs>
    <circle id="avatar-large-a" cx="25" cy="25" r="25"/>
  </defs>
  <g fill="none" fill-rule="evenodd">
    <mask id="avatar-large-b" fill="#fff">
      <use xlink:href="#avatar-large-a"/>
    </mask>
    <use fill="#FFF" xlink:href="#avatar-large-a"/>
    <path fill="#CFD7DF" fill-rule="nonzero" d="M33.54375,33.0019884 L37.17375,34.3143163 C40.0763628,35.3647606 41.9992735,38.0400994 42,41.0290609 L42,44.0116243 C42,45.1097739 41.0765873,56 39.9375,56 L11.0625,56 C9.9234127,56 9,45.1097739 9,44.0116243 L9,41.0290609 C9,38.0385439 10.9243125,35.3621903 13.82625,34.3123279 L17.45625,33 C19.6369563,34.9678032 22.5130608,36.061258 25.5,36.0581217 C28.4866576,36.0617971 31.3627254,34.9690671 33.54375,33.0019884 Z M25.1023667,13 L25.8978024,13 C27.8836986,12.9999804 29.7788927,13.8192858 31.1237073,15.2591945 C32.4685219,16.6991031 33.1401019,18.6280726 32.9755562,20.5782335 L32.6427719,24.5193148 C32.335613,28.1817399 29.2294676,31 25.5000846,31 C21.7707016,31 18.6645561,28.1817399 18.3573973,24.5193148 L18.024613,20.580233 C17.859468,18.6297419 18.5307784,16.7002325 19.8756606,15.2598714 C21.2205429,13.8195104 23.1160868,12.9999339 25.1023667,13 Z" mask="url(#avatar-large-b)"/>
  </g>
</svg>

<svg xmlns="http://www.w3.org/2000/svg" xmlns:xlink="http://www.w3.org/1999/xlink" width="50" height="50"><defs><circle id="a" cx="25" cy="25" r="25"/></defs><g fill="none" fill-rule="evenodd"><mask id="b" fill="#fff"><use xlink:href="#a"/></mask><use fill="#FFF" xlink:href="#a"/><path fill="#CFD7DF" fill-rule="nonzero" d="M33.544 33.002l3.63 1.312c2.902 1.05 4.825 3.726 4.826 6.715v2.983C42 45.11 41.077 56 39.937 56H11.064C9.922 56 9 45.11 9 44.012v-2.983c0-2.99 1.924-5.667 4.826-6.717L17.456 33c2.181 1.968 5.057 3.061 8.044 3.058 2.987.004 5.863-1.089 8.044-3.056zM25.102 13h.796a7.15 7.15 0 0 1 5.226 2.26 6.936 6.936 0 0 1 1.852 5.318l-.333 3.941C32.336 28.182 29.229 31 25.5 31c-3.73 0-6.835-2.818-7.143-6.48l-.332-3.94a6.935 6.935 0 0 1 1.85-5.32A7.15 7.15 0 0 1 25.103 13z" mask="url(#b)"/></g></svg>
